X: 9994
T: Devilll For My Hurt, The
R: reel
M: 4/4
K: Dminor
M:7/8
DE FG E2A|DE FA cAG|A2 d2 cAG|Ad AG cGE|
DE FG E2A|DE FA cAG|f2 ec dcA|1 =B/^c/d AG =cGE:|2 =B/^c/d AG B/c/de||
|:f2 df agf|eA A2 cde|A2 GE cGE|GA cA =B/^c/de|
f2 df agf|eA A2 cde|a2 ga fed|1 ed cA =B/^c/de:|2 =B^c de fga||
b2 ag fga|g2 fe def|eA ^ce a2g|ea ge de/g/a|
b2 ag fga|g2 fe def|eA A2 =B/^c/de|=B^c de fga|
b2 ag fga|g2 fe def|eA ^ce a2g|ea ge de/g/a|
b4 d'c'b|a2 ga c'ba|g2 g2 feg-|gg2e gfe||
K: Cmaj
|:d2 ec dcA|cd A2 GAc|d2 ec dcA|gA ^f2 edc|
d2 ec dcA|GA c2 GAc|f2 ec dcA|1 B/^c/d AG =cde:|2 B/^c/d AG =cGE||

